X:1
T:Title
%%score 1 2
L:1/8
Q:1/4=110
M:2/2
K:G
V:1 treble nm="Grand Piano, Soprano"
V:2 bass nm="Choir Pad, Ljubljana, McGranahan"
V:1
 [DB]2 [DB]2 [CA]2 [B,G]2 | [CD]2 [CE]2 [CF]4 | [B,G]2 [DB]2 [Dd]2 [GB]2 | [GB]4 [FA]4 | %4
w: By~James~McGranahan,~1886 * * *||||
 [DB]2 [DB]2 [CA]2 [B,G]2 | [CD]2 [CE]2 [CF]4 | [B,G]2 [DB]2 [Dd]2 [DB]2 | [CA]4 [B,G]4 | %8
w: ||||
 [Gd]2 [Gd]2 [Gd]2 [Gd]2 | [Ge]2 [Ge]2 [Ge]4 | [Gd]2 [Ge]2 [Gd]2 [GB]2 | [GB]2 [FA]2 [FA]4 | %12
w: ||||
 [DB]2 [DB]2 [CA]2 [B,G]2 | [CD]2 [CE]2 [CF]4 | [B,G]2 [DB]2 [Dd]2 [DB]2 | [CA]4 [B,G]4- | %16
w: ||||
 [B,G]4 z4 |] %17
w: |
V:2
 G,2 G,2 [G,,D,]2 [G,,D,]2 | [D,F,]2 [D,G,]2 [D,A,]4 | G,2 G,2 [F,A,]2 [G,D]2 | [D,D]4 [D,D]4 | %4
 G,2 G,2 [G,,D,]2 [G,,D,]2 | [D,F,]2 [D,G,]2 [D,A,]4 | G,2 G,2 [F,A,]2 G,2 | [D,F,]4 [G,,G,]4 | %8
 [G,B,]2 [G,B,]2 [G,B,]2 [G,B,]2 | [C,C]2 [C,C]2 [C,C]4 | [G,B,]2 [G,C]2 [G,B,]2 [G,D]2 | %11
 [D,D]2 [D,D]2 [D,D]4 | G,2 G,2 [G,,D,]2 [G,,D,]2 | [D,F,]2 [D,G,]2 [D,A,]4 | G,2 G,2 [F,A,]2 G,2 | %15
 [D,F,]4 [G,,G,]4- | [G,,G,]4 z4 |] %17

